X:510
T: Jie zai tianli hao douke
N: C0174
O: China,Anhui, Dangtu
S: III, 583]
N: Vereinzelt Verzierungen. Takt 1 leicht variiert gesungen.
N: Modus Jiao.
N: In der feudalen Gesellschaft wurde ein Maedchen mit einem viel
N: juengeren Kind (!) verheiratet. Waehrend der Feldarbeit trifft sie
N: ihren Geliebten und beklagt ihr Schicksal. Saengerin: Huang Bai
N: Pinyin-Text der ersten Strophe vorhanden!
R: Xiaodiao, Qingge, Klage, Arbeit]
M: 4/4
L: 1/16
K: C
c2A2A2G2A4c4 | E3DE2G2A4A4 |
c2A2A2c2d2d2e2d2 | c3cd2A2G2G2E2E2 |
c3cc2d2A4G4 | E12z4 |
G6c2A4E2E2 | c3cc2d2A4G4 | E12z4

@@@ Tune index: 6511
